X:1
T:Kalamity Kid.
T:Kalamity Kid.
T:RAG.
T:FERD GUTTENBERGER Arr. by J. Russel Robinson. 
T:Copyright 1909 by Ferd Guttenberger.
T:Copyright 1909 by Ferd Guttenberger.
T:Copyright 1909 by Ferd Guttenberger.
T:Copyright 1909 by Ferd Guttenberger.
C:FERD GUTTENBERGER
Z:Copyright 1909 by Ferd Guttenberger.
%%score { ( 1 3 ) | 2 }
L:1/8
Q:1/4=90
M:2/4
K:C
V:1 treble nm="Piano" snm="Pno."
V:3 treble 
V:2 bass 
V:1
"^Not too fast" z | z!ff! !>![^a^c']/!>![bd']/- [bd']/!>![^fa]/!>![gb] | %2
 !>![^d^f]/!>![eg]!>![^A^c]/ !>![B=d]/!>![^FA]/!>![GB] | z4 | [d^fd'] z!8va(! [d'^f'd'']!8va)! || %5
 z |:!f!!ff!"_-" z [DB]- [DB]/E/^G/E/ | z/ [DB]^G/ [Ec][DB] | z [Ge]- [Ge]/A/^c/A/ | %9
 z/ [Ge]^c/ [Af][Ge] | z [=ca]- [ca]/d/^f/d/ | z/ [ca]^f/ [db][ca] | %12
 !>![Bdg]!>![^a^c']/!>![bd']/- [bd']/!>![^fa]/!>![gb] | %13
 !>![^d^f]/!>![eg]!>![^A^c]/ !>![B=d]/!>![^FA]/!>![GB] | z [DB]- [DB]/E/^G/E/ | %15
 z/ [DB]^G/ [Ec][DB] | z [Ge]- [Ge]/A/^c/A/ | z/ [Ge]^c/ [Af][Ge] | ^F/A/c/[Fe]/- [Fe]/^d/[Fe] | %19
 =F/G/B/[F=d]/- [Fd]/^c/[Fd] |1 [EGc]G/A/- A/G/E | !^!C z z2 :|2 %22
 [EGc][^d^f]/[eg]/- [eg]/[^Fd]/[Ge] | !^![EGc] z z2 |:!p!!f!"_-" (A,/C/F/A/-) (A/c/f/a/) | %25
 c'!^![cac']!^![cgc']!^![cfc'] | e/^d/e/[Gg]/- [Gg]/^f/[Gg] | [Geg]2- [Geg]/e/d/c/ | %28
 d/^c/d/[Gg]/- [Gg]/^f/[Gg] | [Gdg]2- [Gdg]/f/e/d/ | c[cec'][B^db][Ada] | [Geg]2- [Geg] z | %32
 (A,/C/F/A/-) (A/c/f/a/) | c'!^![cac']!^![cgc']!^![cfc'] | e/^d/e/[Gg]/- [Gg]/^f/[Gg] | %35
 [Geg]2- [Geg][E^Ge]/!>![FAc]/- | [FAc]>!>![Fcd]- [Fcd]>!>![Gce]- | %37
 [Gce]>!>![G^cg]- [Gcg]/[Ece][=C^F=c]/- | [C^Fc]>[D=Fd]- [DFd]>[CEc]- |1 [CEc] z z2 :|2 %40
{/x-} [CEc] z z2 || z!f! [DB]- [DB]/E/^G/E/ | z/ [DB]^G/ [Ec][DB] | z [Ge]- [Ge]/A/^c/A/ | %44
 z/ [Ge]^c/ [Af][Ge] | z [=ca]- [ca]/d/^f/d/ | z/ [ca]^f/ [db][ca] | %47
 !>![Bdg]!>![^a^c']/!>![bd']/- [bd']/!>![^fa]/!>![gb] | %48
 !>![^d^f]/!>![eg]!>![^A^c]/ !>![B=d]/!>![^FA]/!>![GB] | z [DB]- [DB]/E/^G/E/ | %50
 z/ [DB]^G/ [Ec][DB] | z [Ge]- [Ge]/A/^c/A/ | z/ [Ge]^c/ [Af][Ge] | ^F/A/c/[Fe]/- [Fe]/^d/[Fe] | %54
 =F/G/B/[F=d]/- [Fd]/^c/[Fd] | !>![EGc]!>![^d^f]/[eg]/- !>![eg]/!>![^Fd]/!>![Ge] | %56
 [EGc]2 !^![cec'] z ||[K:F]!p!"^TRIO." z/ b/[dd']/g/ b/[cc']b/ | [dd']/g/b/[cc']/- [cc']/b/[dd'] | %59
 z/ c'/[aa']/c'/ f'/[gg']c'/ | [ff']/a/c'/[ee']/- [ee']/a/[dd'] | z/ b/[ff']/b/ c'/[ee']c'/ | %62
 [ff']/b/c'/[ff']/- [ff']/c'/[ee'] | z/ a/[ee']/a/ c'/[dd']a/ | [ee']/a/c'/[ee']/- [ee']/c'/[dd'] | %65
!f! z/ b/[dd']/g/ b/[cc']b/ | [dd']/g/b/[cc']/- [cc']/b/[dd'] | z/ c'/[aa']/c'/ f'/[gg']c'/ | %68
 [ff']/a/c'/[ee']/- [ee']/a/[_e_e'] | [d^fd']/c'/a/[dfd']/- [dfd']/c'/[dfa] | %70
 [=Bda]/g/=f/[Bda]/- [Bda]/g/[Bd] | [ea]/^g/a/[ec']/- [ec']/g/[ea] | [Acf]2 !^![fac'f'] z || %73
!ff! [f_a_d']/!>(![fad']/[fad']/[fad']/ [fad']/[fad']/!>)![fad']/[fad']/ | %74
 !^![f_a_d']/(f'/d'/a/ f/_d/_A/F/) | [F=A][F^G]/[FA]/- [FA]/[FG]/[FA]/[FG]/ | %76
!>(! [FA][Fc] !tenuto![Fc]2!>)! |!mf! .[F_A_d]/.[FAd]/.[FAd]/.[FAd]/ .[FAd]/.[FAd]/.[FAd]/.[FAd]/ | %78
 !^![F_A_d]/f/d/A/ F/_D/_A,/F,/ | [F,A,][F,^G,]/[F,A,]/- [F,A,]/[F,G,]/[F,A,]/[F,G,]/ | %80
 [F,A,][F,C] !tenuto![F,C]2 |!p! (C/^C/D/^D/ E/F/^F/G/ | %82
!mf! ^G/)(A/^A/=B/"^r.h.""_l.h." c/^c/d/^d/ | (e/)f/^f/g/!f! ^g/a/^a/=b/) | %84
 !^![ec']!>(! z!ff!!8va(! [c'e'g'c'']!8va)! z!>)! ||!ff! z/ b/[dd']/g/ b/[cc']b/ | %86
 [dd']/g/b/[cc']/- [cc']/b/[dd'] | z/ c'/[aa']/c'/ f'/[gg']c'/ | [ff']/a/c'/[ee']/- [ee']/a/[dd'] | %89
 z/ b/[ff']/b/ c'/[ee']c'/ | [ff']/b/c'/[ff']/- [ff']/c'/[ee'] | z/ a/[ee']/a/ c'/[dd']a/ | %92
 [ee']/a/c'/[ee']/- [ee']/c'/[dd'] | z/ b/[dd']/g/ b/[cc']b/ | [dd']/g/b/[cc']/- [cc']/b/[dd'] | %95
 z/ c'/[aa']/c'/ f'/[gg']c'/ | [ff']/a/c'/[ee']/- [ee']/a/[_e_e'] | %97
!>(! [d^fd']/c'/a/[dfd']/- [dfd']/c'/[dfa]!>)! | [=Bda]/g/=f/[Bda]/- [Bda]/g/[Bd] | %99
 [ea]/^g/a/[ec']/- [ec']/g/[ea] |!>(! [Acf]2!>)! !^![fac'f'] !fermata!z |] %101
V:2
 !^![D,,D,] | !^![G,,G,] z z2 | z2 z !^![B,,,B,,] | %3
 [D,,D,]/[^D,,^D,]/[E,,E,]/[F,,F,]/ [^F,,^F,]/[G,,G,]/[^G,,^G,]/[A,,A,]/ | %4
 [D,D][A,,A,] !^![D,,D,] || !>![B,,,B,,] |: !>![E,,E,][E,^G,B,] [B,,,B,,][E,G,B,] | %7
 [E,,E,][E,^G,B,] [^F,,^F,][^G,,G,] | !>![A,,A,][=G,^CE] [E,,E,][G,A,C] | %9
 [^C,,^C,][G,A,^C] [B,,,B,,][C,,C,] | [D,,D,][D,^F,=C] [A,,A,][D,F,C] | %11
 [^F,,^F,][D,F,D] [E,,E,][F,,F,] | !^![G,,G,] z z2 | z2 z !^![B,,,B,,] | %14
 !>![E,,E,][E,^G,B,] [B,,,B,,][E,G,B,] | [E,,E,][E,^G,B,] [^F,,^F,][^G,,G,] | %16
 !>![A,,A,][=G,^CE] [E,,E,][G,A,C] | [^C,,^C,][G,A,^C] [B,,,B,,][C,,C,] | %18
 [D,,D,][D,^F,C] [^F,,F,][D,F,C] | [D,,D,][=F,G,B,] [G,,G,][F,G,B,] |1 [C,C]G,/A,/- A,/G,/E, | %21
 !>![C,,C,]!>![E,,E,]!>![C,,C,]!>![B,,,B,,] :|2 !^![C,C] z z2 | %23
 !>![C,,C,]!>![C,,C,]!>![B,,,B,,]!>![_B,,,_B,,] |: [A,,,A,,][C,F,A,] [C,,C,][A,CF] | %25
 [F,,F,][A,CF] [A,,A,][_A,,_A,] | [G,,G,][G,CE] [C,,C,][G,CE] | [E,,E,][G,CE] [G,,G,][G,CE] | %28
 [B,,B,][G,B,F] [G,,G,][G,B,F] | [B,,B,][G,B,F] [G,,G,][G,B,F] | [C,C][G,CE] [^F,,^F,][F,A,^D] | %31
 [C,C][C,,C,] !>![B,,,B,,]!>![_B,,,_B,,] | [A,,,A,,][C,F,A,] [C,,C,][A,CF] | %33
 [F,,F,][A,CF] [A,,A,][_A,,_A,] | [G,,G,][G,CE] [C,,C,][G,CE] | [E,,E,][G,CE] [C,,C,][^G,,^G,] | %36
 [A,,A,][F,A,C] [_A,,_A,][F,A,C] | [G,,G,][G,CE] [A,,A,][G,^CE] | %38
 [A,,A,][D,^F,C] [G,,G,][=F,G,B,] |1 !>![C,,C,]!>![C,,C,]!>![B,,,B,,]!>![_B,,,_B,,] :|2 %40
 !>![C,,C,]!>![E,,E,]!>![C,,C,]!>![B,,,B,,] || !>![E,,E,][E,^G,B,] [B,,,B,,][E,G,B,] | %42
 [E,,E,][E,^G,B,] [^F,,^F,][^G,,G,] | !>![A,,A,][=G,^CE] [E,,E,][G,A,C] | %44
 [^C,,^C,][G,A,^C] [B,,,B,,][C,,C,] | [D,,D,][D,^F,=C] [A,,A,][D,F,C] | %46
 [^F,,^F,][D,F,D] [E,,E,][F,,F,] | !^![G,,G,] z z2 | z2 z !^![B,,,B,,] | %49
 !>![E,,E,][E,^G,B,] [B,,,B,,][E,G,B,] | [E,,E,][E,^G,B,] [^F,,^F,][^G,,G,] | %51
 !>![A,,A,][=G,^CE] [E,,E,][G,A,C] | [^C,,^C,][G,A,^C] [B,,,B,,][C,,C,] | %53
 [D,,D,][D,^F,C] [^F,,F,][D,F,C] | [D,,D,][=F,G,B,] [G,,G,][F,G,B,] | !^![C,C] z z2 | %56
 !>![C,C]!>![G,,G,] !>![C,,C,]!^![^F,,^F,] ||[K:F] [G,,G,][B,CE] [C,,C,][B,CE] | %58
 [G,,G,][B,CE] [G,,G,][^G,,^G,] | [A,,A,][A,CF] [C,,C,][A,CF] | [F,,F,][A,CF] [A,,A,][_A,,_A,] | %61
 [G,,G,][B,CE] [C,,C,][B,CE] | [G,,G,][B,CE] [G,,G,][^G,,^G,] | [A,,A,][A,CF] [F,,F,][A,CF] | %64
 [C,,C,][A,CF] [F,,F,][^F,,^F,] | [G,,G,][B,CE] [C,,C,][B,CE] | [G,,G,][B,CE] [G,,G,][^G,,^G,] | %67
 [A,,A,][A,CF] [C,,C,][A,CF] | [F,,F,][A,CF] [G,,G,][A,,A,] | [^F,,^F,][D,F,C] [B,,,B,,][D,F,C] | %70
 [G,,G,][F,G,=B,] [D,,D,][F,G,B,] | [G,,G,][B,CE] [C,,C,][E,,E,] | %72
 [F,,F,][C,,C,]!8vb(! F,,,!8vb)! z ||[K:treble] .=B/.B/.B/.B/ .B/.B/.B/.B/ | !^!=B z z2 | %75
[K:bass] C=B,/C/- C/B,/C/B,/ | CA, !tenuto!A,2 | .=B,/.B,/.B,/.B,/ .B,/.B,/.B,/.B,/ | !^!=B, z z2 | %79
 C,=B,,/C,/- C,/B,,/C,/B,,/ | C,A,, !tenuto!A,,2 | (C,/^C,/D,/^D,/ E,/F,/^F,/G,/ | %82
 ^G,/)A,/^A,/=B,/ x2 | x4 | x2 !>![C,,C,]!>![^F,,^F,] || [G,,G,][B,CE] [C,,C,][B,CE] | %86
 [G,,G,][B,CE] [G,,G,][^G,,^G,] | [A,,A,][A,CF] [C,,C,][A,CF] | [F,,F,][A,CF] [A,,A,][_A,,_A,] | %89
 [G,,G,][B,CE] [C,,C,][B,CE] | [G,,G,][B,CE] [G,,G,][^G,,^G,] | [A,,A,][A,CF] [F,,F,][A,CF] | %92
 [C,,C,][A,CF] [F,,F,][^F,,^F,] | [G,,G,][B,CE] [C,,C,][B,CE] | [G,,G,][B,CE] [G,,G,][^G,,^G,] | %95
 [A,,A,][A,CF] [C,,C,][A,CF] | [F,,F,][A,CF] [G,,G,][A,,A,] | [^F,,^F,][D,F,C] [B,,,B,,][D,F,C] | %98
 [G,,G,][F,G,=B,] [D,,D,][F,G,B,] | [G,,G,][B,CE] [C,,C,][E,,E,] | %100
 !>![F,,F,]!>![C,,C,] !>![F,,,F,,] !fermata!z |] %101
V:3
 x | x4 | x4 | x4 | x2!8va(! x!8va)! || x |: x4 | x4 | x4 | x4 | x4 | x4 | x4 | x4 | x4 | x4 | x4 | %17
 x4 | x4 | x4 |1 x4 | x4 :|2 x4 | x4 |: x4 | x4 | x4 | x4 | x4 | x4 | x4 | x4 | x4 | x4 | x4 | x4 | %36
 x4 | x4 | x4 |1 x4 :|2 x4 || x4 | x4 | x4 | x4 | x4 | x4 | x4 | x4 | x4 | x4 | x4 | x4 | x4 | x4 | %55
 x4 | x4 ||[K:F] x4 | x4 | x4 | x4 | x4 | x4 | x4 | x4 | x4 | x4 | x4 | x4 | x4 | x4 | x4 | x4 || %73
 x4 | x4 | x4 | x4 | x4 | x4 | x4 | x4 | x4 | x2 C/^C/D/^D/ | (E/F/^F/G/ ^G/A/^A/=B/) | %84
 !^![Cc] z!8va(! x!8va)! x || x4 | x4 | x4 | x4 | x4 | x4 | x4 | x4 | x4 | x4 | x4 | x4 | x4 | x4 | %99
 x4 | x4 |] %101

